X: 1
T: the Muses
R: jig
S: https://www.loc.gov/resource/musm1a1.10098.0/?sp=1
Z: 2018 John Chambers <jc:trillian.mit.edu>
M: 6/8
L: 1/8
K: D
(A/G/) |\
"D"FAd FAd | "G"BcB "Em"e2d | "A7"cBc ABc | "D"d2e f2 (A/G/) |\
"D"FAd FAd | "G"BcB "Em"e2d | "A7"cBc ABc | "D"d3 d2 |]
a |\
"D"f2a "A/c#"e2a | "Bm"dcd "A"c2a | "D"(fa)a "A/c#"(ea)a | "E7"^gfg "A"a3 |\
"D"dcd dcd | "A7/e"gfg "D"f3 | "Em/g"ege "A7"cBc | "D"d3 D2 |]
